Origami/48x48/apps/conky-manager.svg

<svg width="48" height="48" version="1" xmlns="http://www.w3.org/2000/svg">
 <rect x="22" y="11" width="6" height="28" rx="1" ry="1" style="opacity:.2"/>
 <rect x="38" y="11" width="6" height="28" rx="1" ry="1" style="opacity:.2"/>
 <rect x="38" y="10" width="6" height="28" rx="1" ry="1" style="fill:#c2352a"/>
 <rect x="22" y="10" width="6" height="28" rx="1" ry="1" style="fill:#c2352a"/>
 <rect x="4" y="10" width="6" height="28" rx="1" ry="1" style="fill:#c2352a"/>
 <path d="m5 11c-0.554 0-1 0.446-1 1v4c0 0.554 0.446 1 1 1h12c0.554 0 1-0.446 1-1v-4c0-0.554-0.446-1-1-1h-12zm18.431641 0a1.4324115 1.17907 0 0 0 -1.240235 1.767578l4.785156 6.820313 4.785157 6.822265a1.4324115 1.17907 0 0 0 1.171875 0.587891 1.4324115 1.17907 0 0 0 1.30664 -0.587891l4.785157-6.822265 4.783203-6.820313a1.4324115 1.17907 0 0 0 -1.240235 -1.767578h-9.568359-9.568359zm-18.431641 22c-0.554 0-1 0.446-1 1v4c0 0.554 0.446 1 1 1h12c0.554 0 1-0.446 1-1v-4c0-0.554-0.446-1-1-1h-12z" style="opacity:.2"/>
 <rect transform="rotate(90)" x="10" y="-18" width="6" height="14" rx="1" ry="1" style="fill:#d8564d"/>
 <rect transform="rotate(90)" x="32" y="-18" width="6" height="14" rx="1" ry="1" style="fill:#d8564d"/>
 <path d="m23.431963 10a1.4324115 1.17907 0 0 0 -1.24018 1.768429l4.785417 6.820422 4.78355 6.820422a1.4324115 1.17907 0 0 0 1.173045 0.589476 1.4324115 1.17907 0 0 0 1.307317 -0.589476l4.783552-6.820422 4.783552-6.820422a1.4324115 1.17907 0 0 0 -1.240179 -1.768429h-9.567105-9.568969z" style="fill:#d8564d"/>
 <path d="m5 10c-0.554 0-1 0.446-1 1v1c0-0.554 0.446-1 1-1h12c0.554 0 1 0.446 1 1v-1c0-0.554-0.446-1-1-1h-12zm18.431641 0a1.4324115 1.17907 0 0 0 -1.294922 1.679688 1.4324115 1.17907 0 0 1 1.294922 -0.679688h9.568359 9.568359a1.4324115 1.17907 0 0 1 1.294922 0.679688 1.4324115 1.17907 0 0 0 -1.294922 -1.679688h-9.568359-9.568359zm-18.431641 22c-0.554 0-1 0.446-1 1v1c0-0.554 0.446-1 1-1h12c0.554 0 1 0.446 1 1v-1c0-0.554-0.446-1-1-1h-12z" style="fill:#ffffff;opacity:.2"/>
</svg>

<svg xmlns="http://www.w3.org/2000/svg" width="48" height="48" version="1">
 <rect style="opacity:0.2" width="6" height="28" x="22" y="11" rx="1" ry="1"/>
 <rect style="opacity:0.2" width="6" height="28" x="38" y="11" rx="1" ry="1"/>
 <rect style="fill:#c2352a" width="6" height="28" x="38" y="10" rx="1" ry="1"/>
 <rect style="fill:#c2352a" width="6" height="28" x="22" y="10" rx="1" ry="1"/>
 <rect style="fill:#c2352a" width="6" height="28" x="4" y="10" rx="1" ry="1"/>
 <path style="opacity:0.2" d="m 5,11 c -0.554,0 -1,0.446 -1,1 l 0,4 c 0,0.554 0.446,1 1,1 l 12,0 c 0.554,0 1,-0.446 1,-1 l 0,-4 c 0,-0.554 -0.446,-1 -1,-1 L 5,11 Z m 18.431641,0 a 1.4324115,1.17907 0 0 0 -1.240235,1.767578 l 4.785156,6.820313 4.785157,6.822265 a 1.4324115,1.17907 0 0 0 1.171875,0.587891 1.4324115,1.17907 0 0 0 1.30664,-0.587891 l 4.785157,-6.822265 4.783203,-6.820313 A 1.4324115,1.17907 0 0 0 42.568359,11 L 33,11 23.431641,11 Z M 5,33 c -0.554,0 -1,0.446 -1,1 l 0,4 c 0,0.554 0.446,1 1,1 l 12,0 c 0.554,0 1,-0.446 1,-1 l 0,-4 c 0,-0.554 -0.446,-1 -1,-1 L 5,33 Z"/>
 <rect style="fill:#d8564d" width="6" height="14" x="10" y="-18" rx="1" ry="1" transform="matrix(0,1,-1,0,0,0)"/>
 <rect style="fill:#d8564d" width="6" height="14" x="32" y="-18" rx="1" ry="1" transform="matrix(0,1,-1,0,0,0)"/>
 <path style="fill:#d8564d" d="m 23.431963,10 a 1.4324115,1.17907 0 0 0 -1.24018,1.768429 l 4.785417,6.820422 4.78355,6.820422 a 1.4324115,1.17907 0 0 0 1.173045,0.589476 1.4324115,1.17907 0 0 0 1.307317,-0.589476 l 4.783552,-6.820422 4.783552,-6.820422 A 1.4324115,1.17907 0 0 0 42.568037,10 l -9.567105,0 -9.568969,0 z"/>
 <path style="opacity:0.2;fill:#ffffff" d="M 5 10 C 4.446 10 4 10.446 4 11 L 4 12 C 4 11.446 4.446 11 5 11 L 17 11 C 17.554 11 18 11.446 18 12 L 18 11 C 18 10.446 17.554 10 17 10 L 5 10 z M 23.431641 10 A 1.4324115 1.17907 0 0 0 22.136719 11.679688 A 1.4324115 1.17907 0 0 1 23.431641 11 L 33 11 L 42.568359 11 A 1.4324115 1.17907 0 0 1 43.863281 11.679688 A 1.4324115 1.17907 0 0 0 42.568359 10 L 33 10 L 23.431641 10 z M 5 32 C 4.446 32 4 32.446 4 33 L 4 34 C 4 33.446 4.446 33 5 33 L 17 33 C 17.554 33 18 33.446 18 34 L 18 33 C 18 32.446 17.554 32 17 32 L 5 32 z"/>
</svg>
